X:1
T:Ding Dong Merrily on High
T:Ding Dong Merrily on High
T:Harmony by Edward L. Stauff
T:George Ratcliffe Woodward (1848-1934)
T:Courtesy of the Cyber Hymnal™
C:Harmony by Edward L. Stauff
Z:Courtesy of the Cyber Hymnal™
%%score ( 1 2 ) ( 3 4 )
L:1/8
Q:1/4=150
M:4/4
K:G
V:1 treble 
V:2 treble 
V:3 bass 
V:4 bass 
V:1
 [DG]2 [DG]2 [EA][EG][CF][CE] | [A,D]4 z2 D2 | [CE]2 [CG]2 G2 z x3 | [B,G]4 [B,G]2 z2 | %4
w: 1.~Ding dong! Mer- ri- ly on|high, in|Heav’n the bells|are ring-|
w: 2.~E’en so here be- low, be-|low, let|stee- ple bells|be swung-|
w: 3.~Pray ye du- ti- ful- ly,|prime your|ma- tin chime,|ye rin-|
 [DG]2 [DG]2 [EA][EG][CF][CE] | [A,D]4 z2 D2 | [CE]2 [CG]2 G2 z x3 | [B,G]4 [B,G]2 z2 | %8
w: ing, Ding dong! Ver- i- ly|the sky|is riv’n with|an- gel|
w: en, And i- o, i- o,|i- o,|by priest and|peo- ple|
w: gers; May ye beau- ti- ful-|ly rime|your eve- time|song, ye|
 d3 [Ac] [GB][Ac] [Bd][GB] | c3 B [FA][GB] [Ac][FA] | B3 A [EG][FA] [GB][EG] | %11
w: sing- ing. * * * *||Glo- * * * * *|
w: sung- en. * * * *||Glo- * * * * *|
w: sing- ers. * * * *||Glo- * * * * *|
 A3 (z G [DF][EG] [FA][DF] | G3) (z F [CE][DF] [EG][CE] | [DF]3) [DE] [A,D]2 D2 | %14
w: ri- * * * * *||* a, ho- san-|
w: ri- * * * * *||* a, ho- san-|
w: ri- * * * * *||* a, ho- san-|
 [CE]2 [CG]2 G2 z x3 | [B,G]4 [B,G]2 z2 |] %16
w: nah in the|high- est!|
w: nah in the|high- est!|
w: nah in the|high- est!|
V:2
 x8 | x6 D2 | x4 D3 (F2 C) | x8 | x8 | x6 D2 | x4 D3 (F2 C) | x8 | GA B x5 | E4 x4 | D4 x4 | %11
 CD E2 x5 | B,C D2 x5 | x6 D2 | x4 D3 (F2 C) | x8 |] %16
V:3
 [G,B,]2 [G,B,]2 [C,C][C,B,][C,A,][C,G,] | [D,F,]4 z2 [B,,G,]2 | %2
 [C,G,]2 [A,,A,]2 [D,A,]2 [D,A,]2 x2 | [G,,G,]4 [G,,G,]2 z2 | %4
 [G,B,]2 [G,B,]2 [C,C][C,B,][C,A,][C,G,] | [D,F,]4 z2 [B,,G,]2 | %6
 [C,G,]2 [A,,A,]2 [D,A,]2 [D,A,]2 x2 | [G,,G,]4 [G,,G,]2 z2 | B,C D2 E2 B,2 | A,B, C2 D2 A,2 | %10
 G,A, B,2- B,2 G,2 | A,B, C2 D2 A,2 x | G,A, B,A, G,2 C2 x | [D,A,]3 [D,G,] [D,F,]2 [B,,G,]2 | %14
 [C,G,]2 [A,,A,]2 [D,A,]2 [D,A,]2 x2 | [G,,G,]4 [G,,G,]2 z2 |] %16
V:4
 x8 | x8 | x10 | x8 | x8 | x8 | x10 | x8 | G,4 E,4 | A,,4 D,4 | G,4 E,4 | A,,4 D,4 x | G,4 C,4 x | %13
 x8 | x10 | x8 |] %16

